X:99
T:Kitty Gordon's (r)
B:NFID.238c
099kitty_g
S:PT
L:1/8
M:C
R:reel
Q:360
K:D
DFA=c BGAF|DFAF EDEF|DFA=c BGAF|Agfe d2d2|
DFA=c BGAF|DFAF EDEF|DFA=c BGAF|Agfe d^cBA||
d2fd adfd|^cde=c gce^c|d2fd adfd|(3efg fe d^cBA|
d2fd adfd|^cde=c gce^c|DFA=c BGAF|Agfe d2d2||

%%%

